src/assets/filled/Scissor.svg

<?xml version="1.0" encoding="UTF-8"?>
<svg width="24" height="24" viewBox="0 0 24 24" xmlns="http://www.w3.org/2000/svg">
 <path d="m16.19 2h-8.38c-3.64 0-5.81 2.17-5.81 5.81v8.37c0 3.65 2.17 5.82 5.81 5.82h8.37c3.64 0 5.81-2.17 5.81-5.81v-8.38c0.01-3.64-2.16-5.81-5.8-5.81zm1.57 12.68c0.33 0.25 0.4 0.72 0.15 1.05-0.15 0.2-0.37 0.3-0.6 0.3-0.16 0-0.31-0.05-0.45-0.15l-3.95-2.95-2.41 1.8c0.01 0.1 0.03 0.2 0.03 0.3 0 1.27-1.03 2.3-2.3 2.3s-2.3-1.03-2.3-2.3 1.03-2.3 2.3-2.3c0.62 0 1.17 0.25 1.58 0.64l1.84-1.38-1.83-1.37c-0.41 0.4-0.98 0.65-1.6 0.65-1.27 0-2.3-1.03-2.3-2.3s1.03-2.3 2.3-2.3 2.3 1.03 2.3 2.3c0 0.1-0.02 0.19-0.03 0.28l2.4 1.8 3.95-2.95c0.33-0.25 0.8-0.18 1.05 0.15s0.18 0.8-0.15 1.05l-3.6 2.69 3.62 2.69z"/>
</svg>

<svg width="24" height="24" viewBox="0 0 24 24"  xmlns="http://www.w3.org/2000/svg">
<path d="M16.19 2H7.81C4.17 2 2 4.17 2 7.81V16.18C2 19.83 4.17 22 7.81 22H16.18C19.82 22 21.99 19.83 21.99 16.19V7.81C22 4.17 19.83 2 16.19 2ZM17.76 14.68C18.09 14.93 18.16 15.4 17.91 15.73C17.76 15.93 17.54 16.03 17.31 16.03C17.15 16.03 17 15.98 16.86 15.88L12.91 12.93L10.5 14.73C10.51 14.83 10.53 14.93 10.53 15.03C10.53 16.3 9.5 17.33 8.23 17.33C6.96 17.33 5.93 16.3 5.93 15.03C5.93 13.76 6.96 12.73 8.23 12.73C8.85 12.73 9.4 12.98 9.81 13.37L11.65 11.99L9.82 10.62C9.41 11.02 8.84 11.27 8.22 11.27C6.95 11.27 5.92 10.24 5.92 8.97C5.92 7.7 6.95 6.67 8.22 6.67C9.49 6.67 10.52 7.7 10.52 8.97C10.52 9.07 10.5 9.16 10.49 9.25L12.89 11.05L16.84 8.1C17.17 7.85 17.64 7.92 17.89 8.25C18.14 8.58 18.07 9.05 17.74 9.3L14.14 11.99L17.76 14.68Z" />
</svg>
